Otagle3/Assets/ikonySvG/WypunktowanieTabeliMs.svg

<?xml version="1.0" encoding="UTF-8" standalone="no"?>
<svg
   xmlns:sketch="http://www.bohemiancoding.com/sketch/ns"
   xmlns:dc="http://purl.org/dc/elements/1.1/"
   xmlns:cc="http://creativecommons.org/ns#"
   xmlns:rdf="http://www.w3.org/1999/02/22-rdf-syntax-ns#"
   xmlns:svg="http://www.w3.org/2000/svg"
   xmlns="http://www.w3.org/2000/svg"
   id="SVGRoot"
   version="1.1"
   viewBox="0 0 200 200"
   height="200px"
   width="200px">
  <defs
     id="defs827" />
  <metadata
     id="metadata830">
    <rdf:RDF>
      <cc:Work
         rdf:about="">
        <dc:format>image/svg+xml</dc:format>
        <dc:type
           rdf:resource="http://purl.org/dc/dcmitype/StillImage" />
        <dc:title></dc:title>
      </cc:Work>
    </rdf:RDF>
  </metadata>
  <g
     id="layer1">
    <g
       id="g1503"
       transform="matrix(3.7795276,0,0,3.7795276,-1166.0327,1200.4211)">
      <rect
         style="fill:#ffec8e;fill-opacity:1;stroke:#000000;stroke-width:0.5;stroke-linecap:round;stroke-miterlimit:4;stroke-dasharray:none;stroke-opacity:1;paint-order:fill markers stroke"
         id="rect833-3-1-3-2-4-1-7"
         width="52.916668"
         height="52.916668"
         x="308.71124"
         y="-317.37164" />
      <text
         xml:space="preserve"
         style="font-size:6.3499999px;line-height:1.25;font-family:voestalpine;-inkscape-font-specification:voestalpine;text-align:center;letter-spacing:0px;word-spacing:0px;text-anchor:middle;fill:#000000;fill-opacity:1;stroke-width:0.26458299"
         x="335.14417"
         y="-274.48709"
         id="text983-9-1-2-6-7-0-0"><tspan
           id="tspan2299-2-9-8"
           x="335.90692"
           y="-274.48709"
           style="font-size:6.3499999px;text-align:center;text-anchor:middle;fill:#000000;fill-opacity:1;stroke-width:0.26458299">Wypunktowanie </tspan><tspan
           id="tspan2455-9"
           x="335.14417"
           y="-266.54959"
           style="font-size:6.3499999px;text-align:center;text-anchor:middle;fill:#000000;fill-opacity:1;stroke-width:0.26458299">w tabeli ms</tspan></text>
      <g
         transform="matrix(1.6536458,0,0,1.6536458,321.94039,-310.86981)"
         id="g2453-6"
         style="fill:#000000">
        <g
           style="fill:none;fill-rule:evenodd;stroke:none;stroke-width:1"
           sketch:type="MSPage"
           id="g2437-6">
          <g
             style="fill:#000000"
             sketch:type="MSArtboardGroup"
             id="g2435-1">
            <rect
               sketch:type="MSShapeGroup"
               x="6"
               y="3"
               width="10"
               height="3"
               id="rect2427-6" />
            <rect
               sketch:type="MSShapeGroup"
               x="6"
               y="10"
               width="10"
               height="3"
               id="rect2429-6" />
            <path
               d="M 1.8355795,2.4621849 0.68733154,3.512605 0,2.6890756 1.8679245,1.0504202 H 3 V 7 H 1.8355795 Z"
               sketch:type="MSShapeGroup"
               id="path2431-9-6" />
            <path
               d="m 0,13.675 2.2267206,-2.058333 c 0.1133609,-0.105556 0.2267201,-0.225 0.340081,-0.358334 0.1133609,-0.133334 0.1700405,-0.288888 0.1700405,-0.466666 0,-0.200001 -0.070175,-0.356944 -0.2105263,-0.470834 C 2.3859642,10.206944 2.2213235,10.15 2.0323887,10.15 1.8056669,10.15 1.6288805,10.222222 1.5020243,10.366667 1.3751681,10.511112 1.3036438,10.688888 1.2874494,10.9 L 0.07287449,10.808333 C 0.08906891,10.502776 0.15114656,10.237501 0.25910931,10.0125 0.36707207,9.7874989 0.51012057,9.6000008 0.68825911,9.45 0.86639765,9.2999993 1.0755723,9.1875004 1.3157895,9.1125 1.5560066,9.0374996 1.8164628,9 2.097166,9 2.3562766,9 2.5991892,9.0375 2.8259109,9.1125 3.0526327,9.1875 3.2496618,9.2986104 3.4170041,9.4458333 3.5843463,9.5930563 3.7152492,9.7777767 3.8097166,10 c 0.094467,0.222223 0.1417004,0.480554 0.1417004,0.775 0,0.18889 -0.018893,0.359722 -0.05668,0.5125 -0.037787,0.152779 -0.090418,0.291666 -0.1578947,0.416667 -0.067477,0.125 -0.147098,0.240277 -0.2388664,0.345833 -0.091768,0.105556 -0.1916324,0.208333 -0.2995951,0.308333 L 1.4574899,13.9 H 4 V 15 H 0 Z"
               sketch:type="MSShapeGroup"
               id="path2433-7" />
          </g>
        </g>
      </g>
    </g>
  </g>
</svg>

<svg id="SVGRoot" width="208" height="208" version="1.1" viewBox="0 0 208 208" xmlns="http://www.w3.org/2000/svg">
 <g transform="translate(0,7)">
  <g transform="matrix(3.7795 0 0 3.7795 10.171 -6.7758)">
   <g transform="translate(-1.0884 -121.69)">
    <g transform="translate(1.6608 -59.209)">
     <g transform="translate(-.6443 -59.335)">
      <g transform="translate(-1396.8 269.89)">
       <g transform="translate(-57.972 -.024822)">
        <g transform="translate(1658.1 73.867)">
         <g transform="translate(-203.03 -103.33)">
          <flowRoot transform="matrix(.26458 0 0 .26458 -2.875 1.091)" fill="#000000" font-family="sans-serif" font-size="40px" letter-spacing="0px" word-spacing="0px" style="line-height:1.25" xml:space="preserve"><flowRegion><rect x="-85.582" y="-60.812" width="342.33" height="293.65"/></flowRegion><flowPara/></flowRoot>
          <g transform="translate(-1039.4 318.88)">
           <flowRoot transform="matrix(.26458 0 0 .26458 1036.5 -317.79)" fill="#000000" font-family="sans-serif" font-size="40px" letter-spacing="0px" word-spacing="0px" style="line-height:1.25" xml:space="preserve"><flowRegion><rect x="-105.21" y="-13.703" width="562.17" height="513.49"/></flowRegion><flowPara/></flowRoot>
           <g transform="translate(-66.134 .039287)">
            <g transform="translate(-66.173 .043409)">
             <flowRoot transform="matrix(.26458 0 0 .26458 1168.8 -317.87)" fill="#000000" font-family="sans-serif" font-size="40px" letter-spacing="0px" word-spacing="0px" style="line-height:1.25" xml:space="preserve"><flowRegion><rect x="-114.63" y="-91.434" width="675.23" height="522.91"/></flowRegion><flowPara/></flowRoot>
             <g transform="translate(-66.2 -.040316)">
              <g transform="translate(-65.918 -.60254)">
               <g transform="translate(-66.6 .14883)">
                <flowRoot fill="black" font-family="sans-serif" font-size="40px" letter-spacing="0px" word-spacing="0px" style="line-height:1.25" xml:space="preserve"><flowRegion><rect x="-24.34" y="-19.695" width="252.04" height="245.75"/></flowRegion><flowPara/></flowRoot>
                <g transform="translate(-68.678 -.48293)">
                 <flowRoot fill="black" font-family="sans-serif" font-size="40px" letter-spacing="0px" word-spacing="0px" style="line-height:1.25" xml:space="preserve"><flowRegion><rect x="-65.168" y="-26.762" width="382.37" height="335.26"/></flowRegion><flowPara/></flowRoot>
                 <g transform="translate(-63.347 .4912)">
                  <g transform="translate(529.82 -.18087)">
                   <g transform="translate(794.67 .06923)">
                    <g transform="translate(-198.36 .17569)">
                     <g transform="translate(-530.68 .043413)">
                      <g transform="translate(912.04 -.041317)">
                       <g transform="translate(132.58 -.39794)">
                        <g transform="translate(-580.62 .35866)">
                         <g transform="translate(-264.6 -.1571)">
                          <g transform="translate(463.55 .097138)">
                           <g transform="translate(-397.36 .059959)">
                            <g transform="translate(66.026 -.30592)">
                             <g transform="translate(-264.69 -.093008)">
                              <g transform="translate(734.89 179.33)">
                               <g transform="translate(-205.07 -178.97)">
                                <rect x="308.71" y="-317.37" width="52.917" height="52.917" fill="#ffec8e" stroke="#000" stroke-linecap="round" stroke-width=".5" style="paint-order:fill markers stroke"/>
                                <text x="335.14417" y="-275.90637" fill="#000000" font-family="sans-serif" font-size="4.9389px" letter-spacing="0px" stroke-width=".26458" text-align="center" text-anchor="middle" word-spacing="0px" style="line-height:1.25" xml:space="preserve"><tspan x="336.01233" y="-275.90637" text-align="center">Wypunktowanie </tspan><tspan x="335.14417" y="-267.96887" text-align="center">w tabeli ms</tspan></text>
                                <g transform="matrix(1.6536 0 0 1.6536 321.94 -310.87)">
                                 <g fill="none" fill-rule="evenodd">
                                  <g fill="#000">
                                   <rect x="6" y="3" width="10" height="3"/>
                                   <rect x="6" y="10" width="10" height="3"/>
                                   <path d="m1.8356 2.4622-1.1482 1.0504-.68733-.82353 1.8679-1.6387h1.1321v5.9496h-1.1644z"/>
                                   <path d="m0 13.675 2.2267-2.0583c.11336-.10556.22672-.225.34008-.35833s.17004-.28889.17004-.46667c0-.2-.070175-.35694-.21053-.47083-.14035-.11389-.30499-.17083-.49393-.17083-.22672 0-.40351.072222-.53036.21667s-.19838.32222-.21457.53333l-1.2146-.091667c.016194-.30556.078272-.57083.18623-.79583.10796-.225.25101-.4125.42915-.5625.17814-.15.38731-.2625.62753-.3375.24022-.075.50067-.1125.78138-.1125.25911 0 .50202.0375.72874.1125.22672.075.42375.18611.59109.33333.16734.14722.29825.33194.39271.55417.094467.22222.1417.48055.1417.775 0 .18889-.018893.35972-.05668.5125-.037787.15278-.090418.29167-.15789.41667-.067477.125-.1471.24028-.23887.34583-.091768.10556-.19163.20833-.2996.30833l-1.7409 1.5417h2.5425v1.1h-4z"/>
                                  </g>
                                 </g>
                                </g>
                               </g>
                              </g>
                             </g>
                            </g>
                           </g>
                          </g>
                         </g>
                        </g>
                       </g>
                      </g>
                     </g>
                    </g>
                   </g>
                  </g>
                 </g>
                </g>
               </g>
              </g>
             </g>
            </g>
           </g>
          </g>
         </g>
        </g>
       </g>
      </g>
     </g>
    </g>
   </g>
  </g>
 </g>
</svg>
